X:1
T:Title
%%score { ( 1 3 ) | ( 2 4 ) }
L:1/8
M:4/4
K:Eb
V:1 treble nm="Grand Piano"
V:3 treble 
V:2 bass 
V:4 bass 
V:1
 z4 z2[Q:1/4=116] [EG]2 | [GB]6 E2 | G6 G2 | [DF]2 [Ac]2 [GB]2 [FA]2 | [EG]6 [EG]2 | [DF]6 [EG]2 | %6
 [FA]6 [FA]2 | [Fd]2 [Ac]2 [GB]2 [FA]2 | [EG]6 [EG]2 | [GB]6 E2 | G6 G2 | [DF]2 G2 A2 B2 | %12
[M:7/8] d- d3 c3 |[M:1/4] c2 |[M:4/4] e2 e2 d2 c2 | [EGB]6 [CFA]2 | [B,EG]4 [A,DF]4 | %17
[M:3/4] [G,E]6 |[M:1/4] [GB]2 |[M:4/4] [GB]4 [Ac]4 |[M:3/4] [GB]6 |[M:1/4] [Ee]2 | %22
[M:4/4] [Ee]4 e4 | e6 E2 | F2 G2 A2 B2 | c2 d2 e2 A2 | z4 [DF]4 |[M:3/4] E6 |] %28
V:2
 z4 z2 [E,B,]2 | [E,E]6 [E,G,]2 | [E,B,E]6 [E,B,E]2 | [B,,B,]2 [B,,B,]2 [B,,B,]2 [B,,B,]2 | %4
 [E,B,]6 [E,B,]2 | [B,,B,]6 [B,,B,]2 | [B,,B,]6 [B,,B,]2 | [B,,B,]2 [B,,B,]2 [B,,B,]2 [B,,B,]2 | %8
 [E,B,]6 [E,B,]2 | [E,E]6 [E,G,]2 | [E,B,E]6 [E,B,E]2 | %11
 [B,,B,]2 [E,B,E]2 [F,B,D]2[K:treble] [G,B,E]2 |[M:7/8] [A,EA]-[A,EA]-[A,EA]- [A,EA]- [A,EA]3 | %13
[M:1/4] [A,EA]2 |[M:4/4] [A,CA]2 [A,CA]2 [A,FA]2 [A,EA]2 | E,6 A,,2 | B,,4 B,,4 |[M:3/4] E,6 | %18
[M:1/4] [E,E]2 |[M:4/4] [E,E]4 [E,E]4 |[M:3/4] [E,E]6 |[M:1/4] [E,G,]2 |[M:4/4] z4 E4 | %23
 [E,G,E]6 E,2 | [D,F,D]2 [E,G,E]2[K:treble] [F,A,F]2 [G,B,G]2 | [A,CA]2 [B,DB]2 [CEc]2 [A,CF]2 | %26
 z4 B,2 z2 |[M:3/4] [E,G,]6 |] %28
V:3
 x8 | x8 | x8 | x8 | x8 | x8 | x8 | x8 | x8 | x8 | x8 | x8 |[M:7/8] x7 |[M:1/4] x2 |[M:4/4] x8 | %15
 x8 | x8 |[M:3/4] x6 |[M:1/4] x2 |[M:4/4] x8 |[M:3/4] x6 |[M:1/4] x2 |[M:4/4] z2 A,2 z2 A,2 | x8 | %24
 x8 | x8 | G4 z2 A,2 |[M:3/4] x6 |] %28
V:4
 x8 | x8 | x8 | x8 | x8 | x8 | x8 | x8 | x8 | x8 | x8 | x6[K:treble] x2 |[M:7/8] x7 |[M:1/4] x2 | %14
[M:4/4] x8 | x8 | x8 |[M:3/4] x6 |[M:1/4] x2 |[M:4/4] x8 |[M:3/4] x6 |[M:1/4] x2 | %22
[M:4/4] [E,G,]2 F,2 [G,B,]2 F,2 | x8 | x4[K:treble] x4 | x8 | [B,E]4 B,,4 |[M:3/4] x6 |] %28

